X: 8
T:Six-Bar Jig, The
R:slip jig
C:Tony Upton, 6/2/98
M:9/8
L:1/8
Q:3/8=140
K:Hp
%%MIDI program 109
d2c BFB BFB|BFB d2c AEA|AEA AEA ecA|d2c BFB BFB|
dcd fef ecA|[1 cAE B3 B2c:|[2 cAE (B3B3)||
|:d2c BFF BFF|BBB d2c AEE|AEE AAA ecA|dcB BFF BFF|
d2d def ecA|[1 cAE B3 B2c:|[2 cAE (B3B3)||
